X:1
T:Over the Dead-Line
T:Henry Lake Gilmour
T:Over the Dead-Line
T:Public Domain
T:Public Domain
C:Henry Lake Gilmour
Z:Public Domain
%%score ( 1 2 ) ( 3 4 )
L:1/8
M:6/8
K:G
V:1 treble 
V:2 treble 
V:3 bass 
V:4 bass 
V:1
 D | [DG]>[DG][DG] [GB]>[DA][DG] | [EG]>[DF][CE] [B,D]2 D | [DG]>[DG][DG] [^CG][CF][CG] | %4
w: 1.~O|ther, the Sav- ior is call-|ing for thee, Long, long|He called thee in vain; He|
w: 2.~O|ther, thine ears have been deaf|to His voice, Thine eyes|His glo- ry been dim; The|
w: 3.~O|ther, the Spir- it is striv-|ing with thee; What if|should strive ne- ver more, But|
w: 4.~O|ther, God’s pa- tience may wea-|ry some day, And leave|sad soul in the blast; By|
 [=CA]3- [CA]2 D | [DG]>[DG][DG] [GB]>[DA][DG] | [EG]>[DF][CE] [B,D]2 [DG] | %7
w: called * thee|joy lent its crown to thy|days, He called thee in|
w: calls * of|Sav- ior have so wear- ied|thee, O what if they|
w: leave * thee|lone, in thy dark- ness to|dwell, In sight of the|
w: will- * ful|sist- ance you’ve drift- ed a-|way, ~ O- ver the|
 [DF]>[DF][DF] [DF][DE][DF] | [DG]3- [DG]2 ||"^Refrain" [B,G] | [Ec]>[Ec][Ec] [Ec]>[DB][CA] | %11
w: sor- row and pain. * *||||
w: should wea- ry Him? O turn,|while *|the|Sav- ior in mer- cy is|
w: heav- en- ly shore? * *||||
w: dead- line at last. * *||||
 [DB]>[CA][DB] [CA]<[B,G][B,D] | [DG]>[DG][DG] [Gd]2 [GB] | [FA]3- [FA]2 [Fc] | %14
w: |||
w: wait- ing, And steer for the|har- bor light; For how|do * you|
w: |||
w: |||
 [GB]>[GB][GB] [GB]>[DA][DG] | [EA]>[EG][CE] [B,E] [B,D]2 | [A,F]>[DF][DF] .[DF].[DE].[DF] | %17
w: |||
w: know but your soul may be|drift- ing O- ver the|dead- line to- night? * *|
w: |||
w: |||
 [DG]3- [DG]2 |] %18
w: |
w: |
w: |
w: |
V:2
 D | x6 | x5 D | x6 | x5 D | x6 | x6 | x6 | x5 || x | x6 | x6 | x6 | x6 | x6 | x6 | x6 | x5 |] %18
w: bro-||has||when||||||||||||||
w: bro-||to||thy||||||||||||||
w: bro-||He||a-||||||||||||||
w: bro-||thy||re-||||||||||||||
V:3
 [G,B,] | [G,B,]>[G,B,][G,B,] [G,D]>[G,C][G,B,] | [C,C]>[C,G,][C,G,] [G,,G,]2 D,/C,/ | %3
 [B,,G,]>[B,,G,][B,,G,] [A,,A,][A,,A,][A,,A,] | [D,F,]3- [D,F,]2 [F,C] | %5
 [G,B,]>[G,B,][G,B,] [G,D]>[G,C][G,B,] | [C,C]>[C,G,][C,G,] [G,,G,]2 [B,,G,] | %7
 [D,A,]>[D,A,][D,A,] [D,C][D,C][D,C] | [G,B,]3- [G,B,]2 || G, | %10
 [C,G,]>[C,G,][C,G,] [C,G,]>[C,G,][C,G,] | [G,,G,]>[G,,G,][G,,G,] [G,,D,]<[G,,D,]G, | %12
 [G,B,]>[G,B,][G,B,] [G,B,]2 [G,D] | [D,D]3- [D,D]2 [D,D] | [G,D]>[G,D][G,D] [G,D]>[G,C][G,B,] | %15
 [C,C]>[C,C][C,G,] [G,,G,] [G,,G,]2 | D,>[D,A,][D,C] .[D,C].[D,C].[D,C] | [G,,B,]3- [G,,B,]2 |] %18
V:4
 x | x6 | x5 F, | x6 | x6 | x6 | x6 | x6 | x5 || G, | x6 | x5 G, | x6 | x6 | x6 | x6 | D,3/2 x9/2 | %17
 x5 |] %18

